sticker-alert-outline.svg

<svg fill="currentColor" viewBox="0 0 24 24"><path d="M11 15h2v2h-2zm0-2h2V7h-2zm11-7.5V16l-6 6H5.5C3.6 22 2 20.4 2 18.5v-13C2 3.6 3.6 2 5.5 2h13C20.4 2 22 3.6 22 5.5m-2 .3c0-1-.8-1.8-1.8-1.8H5.8C4.8 4 4 4.8 4 5.8v12.5c0 1 .8 1.8 1.8 1.8H15v-1.5c0-1.9 1.6-3.5 3.5-3.5H20z"/></svg>

<svg  viewBox="0 0 24 24" fill="currentColor"><path  d="M11 15H13V17H11V15M11 13H13V7H11V13M22 5.5V16L16 22H5.5C3.6 22 2 20.4 2 18.5V5.5C2 3.6 3.6 2 5.5 2H18.5C20.4 2 22 3.6 22 5.5M20 5.8C20 4.8 19.2 4 18.2 4H5.8C4.8 4 4 4.8 4 5.8V18.3C4 19.3 4.8 20.1 5.8 20.1H15V18.6C15 16.7 16.6 15.1 18.5 15.1H20V5.8Z"/></svg>
